X: 0604
T: CLAPP'S HORNPIPE
B: Oliver Ditson "The Boston Collection of Instrumental Music" 1910 p.60 #4
F: http://conquest.imslp.info/files/imglnks/usimg/8/8f/IMSLP175643-PMLP309456-bostoncollection00bost_bw.pdf
M: 2/2
L: 1/8
K: G
D2 |\
G2B2 B2AG | FGAB A2GF | EFGA BcdB | ecAG GFED |\
E2e2 e2dc | B2d2 d2ge | dBGB cAFA | G2G2G2 :|
|: D2 |\
GBdg gdBG | FGAB cAGF | EFGA BcdB | ecAG GFED |\
E2e2 e2dc | B2d2 d2ge | dBGB cAFA | G2G2G2 :|

%%sep 1 1 500
%%sep 1 1 500
